src/svg/location.svg

<svg xmlns="http://www.w3.org/2000/svg" width="1000" height="1000" viewBox="0 0 1000 1000"><path fill-rule="evenodd" clip-rule="evenodd" fill="#050505" d="M818.13 572.438c1.448.179 2.995.377 4.463.556-109.531 186.136-198.671 255.104-294.517 345.414-21.174 20.015-33.016 19.182-54.924 0-102.023-89.259-215.115-203.075-291.77-339.959.952-.179 1.954-.258 2.916-.456-23.684-47.407-37.351-100.646-37.351-157.275 0-194.883 158-352.893 352.893-352.893 194.933 0 352.941 158.01 352.941 352.893.001 54.388-12.653 105.722-34.651 151.72zm-318.239-425.588c-151.126 0-273.649 122.484-273.649 273.61 0 50.104 13.716 96.916 37.211 137.32h-1.181s34.067 55.341 89.408 124.943c61.758 77.597 148.39 158.941 148.39 158.941s87.91-81.385 149.479-158.941c55.301-69.662 87.91-124.943 87.91-124.943h-1.189c23.524-40.404 37.211-87.216 37.211-137.32-.001-151.126-122.504-273.61-273.59-273.61zm-.05 448.816c-96.737 0-175.216-78.429-175.216-175.206 0-96.758 78.479-175.227 175.216-175.227 96.787 0 175.256 78.469 175.256 175.227 0 96.777-78.469 175.206-175.256 175.206zm.05-269.762c-51.88 0-93.921 42.031-93.921 93.861 0 51.89 42.041 93.921 93.921 93.921 51.83 0 93.881-42.031 93.881-93.921-.001-51.829-42.051-93.861-93.881-93.861z"/></svg>

<?xml version="1.0" encoding="utf-8"?>
<!-- Generator: Adobe Illustrator 16.0.0, SVG Export Plug-In . SVG Version: 6.00 Build 0)  -->
<!DOCTYPE svg PUBLIC "-//W3C//DTD SVG 1.1//EN" "http://www.w3.org/Graphics/SVG/1.1/DTD/svg11.dtd">
<svg version="1.1" id="Layer_1" xmlns="http://www.w3.org/2000/svg" xmlns:xlink="http://www.w3.org/1999/xlink" x="0px" y="0px"
	 width="1000px" height="1000px" viewBox="0 0 1000 1000" enable-background="new 0 0 1000 1000" xml:space="preserve">
<path fill-rule="evenodd" clip-rule="evenodd" fill="#050505" d="M818.13,572.438c1.448,0.179,2.995,0.377,4.463,0.556
	C713.062,759.13,623.922,828.098,528.076,918.408c-21.174,20.015-33.016,19.182-54.924,0
	c-102.023-89.259-215.115-203.075-291.77-339.959c0.952-0.179,1.954-0.258,2.916-0.456
	c-23.684-47.407-37.351-100.646-37.351-157.275c0-194.883,158-352.893,352.893-352.893c194.933,0,352.941,158.01,352.941,352.893
	C852.782,475.106,840.128,526.44,818.13,572.438L818.13,572.438z M499.891,146.85c-151.126,0-273.649,122.484-273.649,273.61
	c0,50.104,13.716,96.916,37.211,137.32h-1.181c0,0,34.067,55.341,89.408,124.943c61.758,77.597,148.39,158.941,148.39,158.941
	s87.91-81.385,149.479-158.941c55.301-69.662,87.91-124.943,87.91-124.943h-1.189c23.524-40.404,37.211-87.216,37.211-137.32
	C773.48,269.334,650.977,146.85,499.891,146.85L499.891,146.85z M499.841,595.666c-96.737,0-175.216-78.429-175.216-175.206
	c0-96.758,78.479-175.227,175.216-175.227c96.787,0,175.256,78.469,175.256,175.227
	C675.097,517.237,596.628,595.666,499.841,595.666L499.841,595.666z M499.891,325.904c-51.88,0-93.921,42.031-93.921,93.861
	c0,51.89,42.041,93.921,93.921,93.921c51.83,0,93.881-42.031,93.881-93.921C593.771,367.936,551.721,325.904,499.891,325.904
	L499.891,325.904z"/>
</svg>
